X:19290
T:Ónde vas de madrugada (MQ 023)
C:Tradicional
S:Música Tradicional Asturiana, (C) Tello & Tito. Asturies, 2001.
S:http://pagina.de/MusTradAst <telloytito@asturies.org>
N:Típica canción de ronda.
A:Asturies
Z:Manolo Quirós 023
M:3/4
L:1/8
Q:1/4=130
K:C
|EA ^GA cc|B3/2(3c/4B/4A/4 GA cd|B3/2(3c/4B/4A/4 G2 AG|F3/2G/4F/4 E4|
|: EA ^GA cc|B3/2(3c/4B/4A/4 GA cd|B3/2(3c/4B/4A/4 G4|ED EF AG|
F3/2G/4F/4 DF AG|[1 F3/2G/4F/4 E2 E2 :|[2 F3/2G/4F/4 E4|
|: DE FA/>G/ AA|G3/2(3A/4G/4F/4 E4|DE FA/>G/ AB/>A/|B3/2(3c/4B/4A/4 G4|
FE FG AA|G3/2(3A/4G/4F/4 E4|


